src/assets/tokens/ohm.svg

<svg viewBox="0 0 32 32" fill="none" xmlns="http://www.w3.org/2000/svg">
<path d="M0 16C0 7.16344 7.16344 0 16 0C24.8366 0 32 7.16344 32 16C32 24.8366 24.8366 32 16 32C7.16344 32 0 24.8366 0 16Z" fill="#708B96"/>
<path fill-rule="evenodd" clip-rule="evenodd" d="M17.536 23.04L17.536 23.072H23.04V21.088H20.322C21.9573 19.849 23.008 17.923 23.008 15.76C23.008 12.0221 19.8704 8.992 16 8.992C12.1296 8.992 8.99199 12.0221 8.99199 15.76C8.99199 17.923 10.0427 19.849 11.678 21.088H8.95999V23.072H14.464V23.04V22.3649V20.4054C12.4585 19.7742 11.008 17.9401 11.008 15.776C11.008 13.0897 13.243 10.912 16 10.912C18.757 10.912 20.992 13.0897 20.992 15.776C20.992 17.9401 19.5414 19.7742 17.536 20.4054V23.04Z" fill="white"/>
</svg>

<svg xmlns="http://www.w3.org/2000/svg" fill="none" viewBox="0 0 32 32"><path fill="#708B96" d="M0 16C0 7.163 7.163 0 16 0s16 7.163 16 16-7.163 16-16 16S0 24.837 0 16"/><path fill="#fff" fill-rule="evenodd" d="M17.536 23.04v.032h5.504v-1.984h-2.718c1.635-1.239 2.686-3.165 2.686-5.328 0-3.738-3.138-6.768-7.008-6.768s-7.008 3.03-7.008 6.768c0 2.163 1.05 4.089 2.686 5.328H8.96v1.984h5.504v-2.667c-2.005-.63-3.456-2.465-3.456-4.629 0-2.686 2.235-4.864 4.992-4.864s4.992 2.178 4.992 4.864c0 2.164-1.45 3.998-3.456 4.63z" clip-rule="evenodd"/></svg>
